assets/ico-account.svg

<svg fill="none" height="53" viewBox="0 0 72 53" width="72" xmlns="http://www.w3.org/2000/svg"><g fill="#eb5c98"><path clip-rule="evenodd" d="m26.7973 33.5726-4.3074-2.2088v-.4608c1.9278-1.0567 3.2831-2.7976 4.0401-5.1869 1.1472-.6103 1.8804-1.8002 1.8804-3.135v-1.1875c0-1.0995-.5109-2.1207-1.3624-2.7929-.738-4.4934-3.8603-6.7711-9.2912-6.7711-.1286 0-.2555.0024-.3806.0071-.0648.0024-.1292.0056-.1931.0093-.0599.0035-.1194.0075-.1785.0122-1.0218.0854-2.5191-.0048-3.8153-.8787-.4849-.3278-.8492-.6461-1.0833-.9429-.3974-.51062-1.0668-.68874-1.6605-.44417-.59374.24468-.94381.84077-.86813 1.48207.04969.4441.12537.9618.23653 1.5294.13719.693.1923.9716.14576 1.2319-.03133.175-.10865.3418-.23801.6206l-.04221.0919c-.11261.2455-.24734.539-.40248.9222-.39263.9642-.66939 2.0187-.83024 3.1468-.83969.6722-1.34352 1.6863-1.34352 2.7763v1.1875c0 1.3325.73326 2.5223 1.88046 3.135.75693 2.3916 2.11224 4.1325 4.03774 5.1869v.4466l-4.46112 2.2087c-1.62974.8906-2.64213 2.603-2.64213 4.4673v1.5746c0 .9548 0 3.1872 11.83865 3.1872 11.8363 0 11.8363-2.2324 11.8363-3.1872v-1.4796c0-1.938-1.0715-3.6789-2.7958-4.548zm.4281 5.7593c-.738.4512-3.742 1.0782-9.4709 1.0782-5.7266 0-8.73062-.627-9.47098-1.0782v-1.3063c0-.9927.53931-1.9047 1.36245-2.3559l4.56513-2.2587c.712-.349 1.1709-1.09 1.1709-1.888v-2.1422l-.7144-.3088c-1.7953-.7767-2.9638-2.2586-3.5693-4.5338l-.1679-.6341-.6221-.1949c-.4944-.1566-.8421-.6174-.8421-1.1256v-1.1875c0-.4299.24601-.8289.641-1.0402l.5559-.2969.0662-.6295c.1183-1.1138.3643-2.1422.7356-3.0541.1585-.3871.291-.6745.3998-.912.4021-.8645.5464-1.311.447-2.2277 1.3933.798 3.0656 1.1376 4.8798.9999.1821-.0167.3713-.0238.5653-.0238 4.4327 0 6.5947 1.6126 7.0181 5.2273l.0733.6199.5511.2921c.395.2113.6434.6127.6434 1.045v1.1875c0 .5082-.3477.9713-.8421 1.1256l-.6221.1949-.1703.6341c-.6055 2.2728-1.774 3.7548-3.5693 4.5338l-.7143.3111v2.1517c0 .7957.4375 1.5129 1.1401 1.8715l4.4681 2.2918c.9202.4608 1.4926 1.3918 1.4926 2.4225z" fill-rule="evenodd"/><path d="m47.3476 17.8289h-11.8363c-.6553 0-1.1827-.5321-1.1827-1.1875 0-.6555.5274-1.1875 1.1827-1.1875h11.8363c.6528 0 1.1826.5296 1.1826 1.1875 0 .6554-.5275 1.1875-1.1826 1.1875z"/><path d="m52.083 17.8289h1.1827c.6552 0 1.1827-.5321 1.1827-1.1875 0-.6579-.5298-1.1875-1.1827-1.1875h-1.1827c-.6552 0-1.185.532-1.185 1.1875.0023.6554.5322 1.1875 1.185 1.1875z"/><path d="m35.5113 35.6579h1.1826c.6553 0 1.1827.532 1.1827 1.1874 0 .6555-.5274 1.1875-1.1827 1.1875h-1.1826c-.6529 0-1.1827-.532-1.1827-1.1875 0-.6554.5274-1.1874 1.1827-1.1874z"/><path d="m43.7971 35.6579h-2.3677c-.6552 0-1.185.532-1.185 1.1874 0 .6555.5298 1.1875 1.185 1.1875h2.3677c.6553 0 1.1827-.532 1.1827-1.1875 0-.6554-.5274-1.1874-1.1827-1.1874z"/><path d="m48.5326 35.6579h1.1827c.6552 0 1.1827.532 1.1827 1.1874 0 .6555-.5275 1.1875-1.1827 1.1875h-1.1827c-.6528 0-1.1827-.532-1.1827-1.1875 0-.6554.5275-1.1874 1.1827-1.1874z"/><path d="m56.8185 35.6579h-2.3678c-.6552 0-1.185.532-1.185 1.1874 0 .6555.5298 1.1875 1.185 1.1875h2.3678c.6552 0 1.1827-.532 1.1827-1.1875 0-.6554-.5275-1.1874-1.1827-1.1874z"/><path d="m60.3713 36.8453c0-.3087.1277-.6175.3429-.843.4376-.4394 1.23-.4394 1.6795 0 .2128.2232.3429.5343.3429.843s-.1301.6176-.3429.8431c-.2248.2139-.5322.3444-.8398.3444-.3075 0-.6173-.1305-.8397-.3444-.2129-.2255-.3429-.5344-.3429-.8431z"/><path d="m61.5539 22.5836h-26.0426c-.6553 0-1.1827.532-1.1827 1.1875 0 .6578.5298 1.1898 1.1827 1.1898h26.0426c.6553 0 1.1851-.532 1.1851-1.1898 0-.6579-.5298-1.1875-1.1851-1.1875z"/><path d="m35.5113 29.7132h26.0426c.6553 0 1.1851.5321 1.1851 1.1875 0 .6555-.5298 1.1875-1.1851 1.1875h-26.0426c-.6529 0-1.1827-.5296-1.1827-1.1875 0-.6554.5274-1.1875 1.1827-1.1875z"/><path clip-rule="evenodd" d="m66.0316 0h-61.04068c-2.75329 0-4.99092 2.24915-4.99092 5.01121v42.27449c0 2.7645 2.24 5.0112 4.99092 5.0112h61.04308c2.7509 0 4.9909-2.2491 4.9909-5.0112v-42.27217c0-2.76438-2.24-5.01353-4.9933-5.01353zm2.6255 47.2857c0 1.4535-1.1755 2.6363-2.6231 2.6363h-61.04308c-1.4476 0-2.62319-1.1828-2.62319-2.6363v-42.27217c0-1.45339 1.17559-2.63624 2.62319-2.63624h61.04308c1.4476 0 2.6231 1.18041 2.6231 2.63624z" fill-rule="evenodd"/></g></svg>

<svg width="72" height="53" viewBox="0 0 72 53" fill="none" xmlns="http://www.w3.org/2000/svg">
<path fill-rule="evenodd" clip-rule="evenodd" d="M26.7973 33.5726L22.4899 31.3638V30.903C24.4177 29.8463 25.773 28.1054 26.53 25.7161C27.6772 25.1058 28.4104 23.9159 28.4104 22.5811V21.3936C28.4104 20.2941 27.8995 19.2729 27.048 18.6007C26.31 14.1073 23.1877 11.8296 17.7568 11.8296C17.6282 11.8296 17.5013 11.832 17.3762 11.8367C17.3114 11.8391 17.247 11.8423 17.1831 11.846C17.1232 11.8495 17.0637 11.8535 17.0046 11.8582C15.9828 11.9436 14.4855 11.8534 13.1893 10.9795C12.7044 10.6517 12.3401 10.3334 12.106 10.0366C11.7086 9.52598 11.0392 9.34786 10.4455 9.59243C9.85176 9.83711 9.50169 10.4332 9.57737 11.0745C9.62706 11.5186 9.70274 12.0363 9.8139 12.6039C9.95109 13.2969 10.0062 13.5755 9.95966 13.8358C9.92833 14.0108 9.85101 14.1776 9.72165 14.4564L9.67944 14.5483C9.56683 14.7938 9.4321 15.0873 9.27696 15.4705C8.88433 16.4347 8.60757 17.4892 8.44672 18.6173C7.60703 19.2895 7.1032 20.3036 7.1032 21.3936V22.5811C7.1032 23.9136 7.83646 25.1034 8.98366 25.7161C9.74059 28.1077 11.0959 29.8486 13.0214 30.903V31.3496L8.56028 33.5583C6.93054 34.4489 5.91815 36.1613 5.91815 38.0256V39.6002C5.91815 40.555 5.91815 42.7874 17.7568 42.7874C29.5931 42.7874 29.5931 40.555 29.5931 39.6002V38.1206C29.5931 36.1826 28.5216 34.4417 26.7973 33.5726ZM27.2254 39.3319C26.4874 39.7831 23.4834 40.4101 17.7545 40.4101C12.0279 40.4101 9.02388 39.7831 8.28352 39.3319V38.0256C8.28352 37.0329 8.82283 36.1209 9.64597 35.6697L14.2111 33.411C14.9231 33.062 15.382 32.321 15.382 31.523V29.3808L14.6676 29.072C12.8723 28.2953 11.7038 26.8134 11.0983 24.5382L10.9304 23.9041L10.3083 23.7092C9.8139 23.5526 9.4662 23.0918 9.4662 22.5836V21.3961C9.4662 20.9662 9.71221 20.5672 10.1072 20.3559L10.6631 20.059L10.7293 19.4295C10.8476 18.3157 11.0936 17.2873 11.4649 16.3754C11.6234 15.9883 11.7559 15.7009 11.8647 15.4634C12.2668 14.5989 12.4111 14.1524 12.3117 13.2357C13.705 14.0337 15.3773 14.3733 17.1915 14.2356C17.3736 14.2189 17.5628 14.2118 17.7568 14.2118C22.1895 14.2118 24.3515 15.8244 24.7749 19.4391L24.8482 20.059L25.3993 20.3511C25.7943 20.5624 26.0427 20.9638 26.0427 21.3961V22.5836C26.0427 23.0918 25.695 23.5549 25.2006 23.7092L24.5785 23.9041L24.4082 24.5382C23.8027 26.811 22.6342 28.293 20.8389 29.072L20.1246 29.3831V31.5348C20.1246 32.3305 20.5621 33.0477 21.2647 33.4063L25.7328 35.6981C26.653 36.1589 27.2254 37.0899 27.2254 38.1206V39.3319Z" fill="#EB5C98"/>
<path d="M47.3476 17.8289H35.5113C34.856 17.8289 34.3286 17.2968 34.3286 16.6414C34.3286 15.9859 34.856 15.4539 35.5113 15.4539H47.3476C48.0004 15.4539 48.5302 15.9835 48.5302 16.6414C48.5302 17.2968 48.0027 17.8289 47.3476 17.8289Z" fill="#EB5C98"/>
<path d="M52.083 17.8289H53.2657C53.9209 17.8289 54.4484 17.2968 54.4484 16.6414C54.4484 15.9835 53.9186 15.4539 53.2657 15.4539H52.083C51.4278 15.4539 50.898 15.9859 50.898 16.6414C50.9003 17.2968 51.4302 17.8289 52.083 17.8289Z" fill="#EB5C98"/>
<path d="M35.5113 35.6579H36.6939C37.3492 35.6579 37.8766 36.1899 37.8766 36.8453C37.8766 37.5008 37.3492 38.0328 36.6939 38.0328H35.5113C34.8584 38.0328 34.3286 37.5008 34.3286 36.8453C34.3286 36.1899 34.856 35.6579 35.5113 35.6579Z" fill="#EB5C98"/>
<path d="M43.7971 35.6579H41.4294C40.7742 35.6579 40.2444 36.1899 40.2444 36.8453C40.2444 37.5008 40.7742 38.0328 41.4294 38.0328H43.7971C44.4524 38.0328 44.9798 37.5008 44.9798 36.8453C44.9798 36.1899 44.4524 35.6579 43.7971 35.6579Z" fill="#EB5C98"/>
<path d="M48.5326 35.6579H49.7153C50.3705 35.6579 50.898 36.1899 50.898 36.8453C50.898 37.5008 50.3705 38.0328 49.7153 38.0328H48.5326C47.8798 38.0328 47.3499 37.5008 47.3499 36.8453C47.3499 36.1899 47.8774 35.6579 48.5326 35.6579Z" fill="#EB5C98"/>
<path d="M56.8185 35.6579H54.4507C53.7955 35.6579 53.2657 36.1899 53.2657 36.8453C53.2657 37.5008 53.7955 38.0328 54.4507 38.0328H56.8185C57.4737 38.0328 58.0012 37.5008 58.0012 36.8453C58.0012 36.1899 57.4737 35.6579 56.8185 35.6579Z" fill="#EB5C98"/>
<path d="M60.3713 36.8453C60.3713 36.5366 60.499 36.2278 60.7142 36.0023C61.1518 35.5629 61.9442 35.5629 62.3937 36.0023C62.6065 36.2255 62.7366 36.5366 62.7366 36.8453C62.7366 37.154 62.6065 37.4629 62.3937 37.6884C62.1689 37.9023 61.8615 38.0328 61.5539 38.0328C61.2464 38.0328 60.9366 37.9023 60.7142 37.6884C60.5013 37.4629 60.3713 37.154 60.3713 36.8453Z" fill="#EB5C98"/>
<path d="M61.5539 22.5836H35.5113C34.856 22.5836 34.3286 23.1156 34.3286 23.7711C34.3286 24.4289 34.8584 24.9609 35.5113 24.9609H61.5539C62.2092 24.9609 62.739 24.4289 62.739 23.7711C62.739 23.1132 62.2092 22.5836 61.5539 22.5836Z" fill="#EB5C98"/>
<path d="M35.5113 29.7132H61.5539C62.2092 29.7132 62.739 30.2453 62.739 30.9007C62.739 31.5562 62.2092 32.0882 61.5539 32.0882H35.5113C34.8584 32.0882 34.3286 31.5586 34.3286 30.9007C34.3286 30.2453 34.856 29.7132 35.5113 29.7132Z" fill="#EB5C98"/>
<path fill-rule="evenodd" clip-rule="evenodd" d="M66.0316 0H4.99092C2.23763 0 0 2.24915 0 5.01121V47.2857C0 50.0502 2.24 52.2969 4.99092 52.2969H66.034C68.7849 52.2969 71.0249 50.0478 71.0249 47.2857V5.01353C71.0249 2.24915 68.7849 0 66.0316 0ZM68.6571 47.2857C68.6571 48.7392 67.4816 49.922 66.034 49.922H4.99092C3.54332 49.922 2.36773 48.7392 2.36773 47.2857V5.01353C2.36773 3.56014 3.54332 2.37729 4.99092 2.37729H66.034C67.4816 2.37729 68.6571 3.5577 68.6571 5.01353V47.2857Z" fill="#EB5C98"/>
</svg>
